svgs/sharp-regular/user-doctor.svg

<svg xmlns="http://www.w3.org/2000/svg" viewBox="0 0 448 512"><!--! Font Awesome Pro 6.6.0 by @fontawesome - https://fontawesome.com License - https://fontawesome.com/license (Commercial License) Copyright 2024 Fonticons, Inc. --><path d="M224 208a80 80 0 1 0 0-160 80 80 0 1 0 0 160zm128-80A128 128 0 1 1 96 128a128 128 0 1 1 256 0zM99.5 352L50.2 512 0 512 64 304l320 0 64 208-50.2 0L348.5 352 312 352l0 50c27.6 7.1 48 32.2 48 62l0 32 0 16-16 0-24 0-16 0 0-32 16 0 8 0 0-16c0-17.7-14.3-32-32-32s-32 14.3-32 32l0 16 8 0 16 0 0 32-16 0-24 0-16 0 0-16 0-32c0-29.8 20.4-54.9 48-62l0-50-112 0 0 50.3c23.1 6.9 40 28.3 40 53.7c0 30.9-25.1 56-56 56s-56-25.1-56-56c0-25.4 16.9-46.8 40-53.7l0-50.3-36.5 0zM176 456a24 24 0 1 0 -48 0 24 24 0 1 0 48 0z"/></svg>

<svg xmlns="http://www.w3.org/2000/svg" viewBox="0 0 448 512"><!--! Font Awesome Pro 6.5.2 by @fontawesome - https://fontawesome.com License - https://fontawesome.com/license (Commercial License) Copyright 2024 Fonticons, Inc. --><path d="M224 208a80 80 0 1 0 0-160 80 80 0 1 0 0 160zm128-80A128 128 0 1 1 96 128a128 128 0 1 1 256 0zM99.5 352L50.2 512H0L64 304H384l64 208H397.8L348.5 352H312v50c27.6 7.1 48 32.2 48 62v32 16H344 320 304V480h16 8V464c0-17.7-14.3-32-32-32s-32 14.3-32 32v16h8 16v32H272 248 232V496 464c0-29.8 20.4-54.9 48-62V352H168v50.3c23.1 6.9 40 28.3 40 53.7c0 30.9-25.1 56-56 56s-56-25.1-56-56c0-25.4 16.9-46.8 40-53.7V352H99.5zM176 456a24 24 0 1 0 -48 0 24 24 0 1 0 48 0z"/></svg>
